; HEADER_BLOCK_START
; generated by Creality_Print V6.0.4.1794 on 2025-03-05 at 13:10:46
; total layer number: 511
; filament_density: 1.24
; filament_diameter: 1.75
; max_z_height: 80.00
; HEADER_BLOCK_END

; MINX = 102.00
; MINY = 94.25
; MINZ = 0.00
; MAXX = 118.00
; MAXY = 125.75
; MAXZ = 80.00

; THUMBNAIL_BLOCK_START

;
; THUMBNAIL_BLOCK_END

; THUMBNAIL_BLOCK_START

;
; THUMBNAIL_BLOCK_END

; external perimeters extrusion width = 0.42mm
; perimeters extrusion width = 0.45mm
; infill extrusion width = 0.45mm
; solid infill extrusion width = 0.42mm
; top infill extrusion width = 0.42mm
; support material extrusion width = 0.42mm
; first layer extrusion width = 0.50mm

; EXECUTABLE_BLOCK_START
EXCLUDE_OBJECT_DEFINE NAME=hadn_stand.stl_id_0_copy_0 CENTER=110,110 POLYGON=[[102,110],[102.05,109.106],[102.054,109.071],[102.2,108.224],[105,94.25],[113,94.25],[117.518,107.264],[117.683,107.77],[117.784,108.155],[117.885,108.651],[117.946,109.071],[117.987,109.548],[118,110],[117.987,110.452],[117.946,110.929],[117.885,111.349],[117.784,111.845],[117.683,112.23],[117.518,112.736],[113,125.75],[105,125.75],[102.2,111.776],[102.054,110.929],[102.05,110.894],[102,110]]
M73 P0 R40
;TYPE:Custom
M220 S100 ;Reset Feedrate 
M221 S100 ;Reset Flowrate 
 
M140 S50 ;Set final bed temp  
G28 ;Home 
 
G92 E0 ;Reset Extruder 
G1 Z2.0 F3000 ;Move Z Axis up 
M104 S220 ;Set final nozzle temp  
G1 X-2.0 Y20 Z0.28 F5000.0 ;Move to start position 
M190 S50 ;Wait for bed temp to stabilize  
M109 S220 ;Wait for nozzle temp to stabilize  
G1 X-2.0 Y145.0 Z0.28 F1500.0 E15 ;Draw the first line 
G1 X-1.7 Y145.0 Z0.28 F5000.0 ;Move to side a little 
G1 X-1.7 Y20 Z0.28 F1500.0 E30 ;Draw the second line 
G92 E0 ;Reset Extruder 
G1 E-1.0000 F1800 ;Retract a bit 
G1 Z2.0 F3000 ;Move Z Axis up 
G1 E0.0000 F1800
G90
G21
M83 ; use relative distances for extrusion
; filament start gcode
SET_PRESSURE_ADVANCE ADVANCE=0.048; Override pressure advance value
G1 E-.8 F1800
M106 S0
;LAYER_CHANGE
;Z:0.2
;HEIGHT:0.2
;BEFORE_LAYER_CHANGE
;0.2
G92 E0

;_SET_FAN_SPEED_CHANGING_LAYER
SET_VELOCITY_LIMIT ACCEL=500 ACCEL_TO_DECEL=125
SET_VELOCITY_LIMIT SQUARE_CORNER_VELOCITY=9
; printing object hadn_stand.stl id:0 copy 0
EXCLUDE_OBJECT_START NAME=hadn_stand.stl_id_0_copy_0
G1 Z.2 F18000
G1 X117.693 Y105.953
G1 E.8 F1800
;TYPE:Support
;WIDTH:0.5
G1 F3000
G1 X117.354 Y106.065 E.01287
G2 X102.646 Y106.065 I-7.354 J3.944 E.64995
G1 X102.307 Y105.953 E.01287
G1 X102.307 Y90.799 E.54714
G1 X117.693 Y90.799 E.5555
G1 X117.693 Y105.884 E.54467
G1 E-.56 F1800
;WIPE_START
G1 F3000
G1 X117.693 Y104.884 E-.24
;WIPE_END
G1 X113.877 Y104.947 Z.4 F18000
G1 X102.719 Y105.131 Z.4
G1 Z.2
G1 E.8 F1800
G1 F3000
G1 X102.719 Y91.21 E.50263
G1 X117.281 Y91.21 E.52579
G1 X117.281 Y105.131 E.50263
G2 X102.719 Y105.131 I-7.281 J4.895 E.62022
G1 X103.227 Y103.647 F18000
G1 F3000
G1 X103.227 Y91.718 E.43069
G1 X116.773 Y91.718 E.48912
G1 X116.773 Y103.647 E.43069
G2 X103.227 Y103.647 I-6.773 J6.453 E.54694
G1 X103.735 Y102.512 F18000
G1 F3000
G1 X103.735 Y92.226 E.37138
G1 X116.266 Y92.226 E.45244
G1 X116.266 Y102.512 E.37138
G2 X103.735 Y102.512 I-6.266 J7.489 E.49122
G1 X104.242 Y101.493 F18000
G1 F3000
G1 X104.242 Y92.734 E.31625
G1 X115.758 Y92.734 E.41577
G1 X115.758 Y101.493 E.31625
G2 X104.242 Y101.493 I-5.758 J8.514 E.44132
G1 X104.75 Y100.574 F18000
G1 F3000
G1 X104.75 Y93.242 E.26474
G1 X115.25 Y93.242 E.3791
G1 X115.25 Y100.574 E.26474
G2 X104.75 Y100.574 I-5.25 J9.507 E.39567
G1 X105.258 Y99.738 F18000
G1 F3000
G1 X105.258 Y93.75 E.21622
G1 X114.742 Y93.75 E.34242
G1 X114.742 Y99.738 E.21622
G2 X105.258 Y99.738 I-4.742 J10.456 E.35299
M73 P0 R39
M73 P0 R39
G1 X105.766 Y98.989 F18000
G1 F3000
G1 X105.766 Y94.258 E.17083
G1 X114.234 Y94.258 E.30575
G1 X114.234 Y98.989 E.17083
G2 X105.766 Y98.989 I-4.234 J11.045 E.31269
G1 X106.274 Y98.259 F18000
G1 F3000
G1 X106.274 Y94.766 E.12614
G1 X113.726 Y94.766 E.26907
G1 X113.726 Y98.259 E.12614
G2 X106.274 Y98.259 I-3.726 J12.081 E.27313
G1 X106.782 Y97.597 F18000
G1 F3000
G1 X106.782 Y95.273 E.0839
G1 X113.218 Y95.273 E.2324
G1 X113.218 Y97.597 E.0839
G2 X106.782 Y97.597 I-3.218 J12.503 E.23488
G1 X107.29 Y96.94 F18000
G1 F3000
G1 X107.29 Y95.781 E.04184
G1 X112.71 Y95.781 E.19573
G1 X112.71 Y96.94 E.04184
G2 X107.29 Y96.94 I-2.71 J14.088 E.19691
G1 E-.56 F1800
;WIPE_START
G1 F3000
G1 X108.282 Y96.817 E-.24
;WIPE_END
G1 X110.111 Y100.167 Z.4 F18000
G1 X117.693 Y114.047 Z.4
M73 P1 R39
M73 P1 R39
G1 Z.2
G1 E.8 F1800
G1 F3000
G1 X117.693 Y129.201 E.54714
G1 X102.307 Y129.201 E.5555
G1 X102.307 Y114.047 E.54714
G1 X102.646 Y113.935 E.01287
G2 X117.354 Y113.935 I7.354 J-3.943 E.64997
G1 X117.628 Y114.026 E.01039
G1 E-.56 F1800
;WIPE_START
G1 F3000
G1 X117.354 Y113.935 E-.06909
G1 X116.959 Y114.527 E-.17091
;WIPE_END
G1 X113.144 Y114.619 Z.4 F18000
G1 X102.719 Y114.869 Z.4
G1 Z.2
G1 E.8 F1800
G1 F3000
G2 X117.281 Y114.869 I7.281 J-4.894 E.62023
G1 X117.281 Y128.79 E.50263
G1 X102.719 Y128.79 E.52579
G1 X102.719 Y114.869 E.50263
G1 X103.227 Y116.353 F18000
G1 F3000
G2 X116.773 Y116.353 I6.773 J-6.452 E.54695
G1 X116.773 Y128.282 E.43069
G1 X103.227 Y128.282 E.48912
G1 X103.227 Y116.353 E.43069
G1 X103.735 Y117.488 F18000
G1 F3000
G2 X116.266 Y117.488 I6.266 J-7.488 E.49124
G1 X116.266 Y127.774 E.37138
G1 X103.735 Y127.774 E.45244
G1 X103.735 Y117.488 E.37138
G1 X104.242 Y118.507 F18000
G1 F3000
G2 X115.758 Y118.507 I5.758 J-8.512 E.44133
G1 X115.758 Y127.266 E.31625
G1 X104.242 Y127.266 E.41577
G1 X104.242 Y118.507 E.31625
G1 X104.75 Y119.426 F18000
G1 F3000
G2 X115.25 Y119.426 I5.25 J-9.504 E.39568
G1 X115.25 Y126.758 E.26474
G1 X104.75 Y126.758 E.3791
G1 X104.75 Y119.426 E.26474
G1 X105.258 Y120.261 F18000
G1 F3000
G2 X114.742 Y120.262 I4.742 J-10.449 E.353
G1 X114.742 Y126.25 E.21622
G1 X105.258 Y126.25 E.34242
G1 X105.258 Y120.261 E.21624
G1 X105.766 Y121.01 F18000
G1 F3000
G2 X114.234 Y121.011 I4.235 J-11.036 E.3127
G1 X114.234 Y125.742 E.17083
G1 X105.766 Y125.742 E.30575
G1 X105.766 Y121.01 E.17085
G1 X106.274 Y121.741 F18000
G1 F3000
G2 X113.726 Y121.741 I3.726 J-12.073 E.27314
G1 X113.726 Y125.234 E.12614
G1 X106.274 Y125.234 E.26907
G1 X106.274 Y121.741 E.12614
G1 X106.782 Y122.403 F18000
G1 F3000
G2 X113.218 Y122.403 I3.218 J-12.493 E.23488
G1 X113.218 Y124.727 E.0839
G1 X106.782 Y124.727 E.2324
G1 X106.782 Y122.403 E.0839
G1 X107.29 Y123.06 F18000
G1 F3000
G2 X112.71 Y123.06 I2.71 J-14.07 E.19691
G1 X112.71 Y124.219 E.04184
G1 X107.29 Y124.219 E.19573
G1 X107.29 Y123.06 E.04184
G1 E-.56 F1800
;WIPE_START
G1 F3000
G1 X107.29 Y124.06 E-.24
;WIPE_END
G1 X103.789 Y122.541 Z.4 F18000
G1 X101.829 Y121.69 Z.4
G1 Z.2
G1 E.8 F1800
;TYPE:Brim
G1 F3000
G1 X101.2 Y121.226 E.02823
G1 X100.488 Y120.63 E.03353
G1 X99.956 Y120.128 E.02639
G1 X99.318 Y119.453 E.03353
G1 X98.848 Y118.894 E.02639
G1 X98.293 Y118.149 E.03353
G1 X97.891 Y117.539 E.02639
G1 X97.426 Y116.735 E.03353
G1 X97.098 Y116.082 E.02639
G1 X96.729 Y115.23 E.03353
G1 X96.479 Y114.543 E.02639
G1 X96.212 Y113.654 E.03353
G1 X96.043 Y112.943 E.02639
G1 X95.881 Y112.029 E.03353
G1 X95.795 Y111.303 E.02639
G1 X95.741 Y110.376 E.03353
G1 X95.74 Y109.645 E.02639
G1 X95.793 Y108.718 E.03353
G1 X95.878 Y107.992 E.02639
G1 X96.038 Y107.077 E.03353
G1 X96.206 Y106.366 E.02639
G1 X96.472 Y105.476 E.03353
G1 X96.722 Y104.789 E.02639
G1 X97.089 Y103.936 E.03353
G1 X97.416 Y103.283 E.02639
G1 X97.88 Y102.478 E.03353
G1 X98.281 Y101.867 E.02639
G1 X98.835 Y101.122 E.03353
G1 X99.305 Y100.562 E.02639
G1 X99.941 Y99.886 E.03353
G1 X100.473 Y99.384 E.02639
G1 X101.184 Y98.787 E.03353
G1 X101.829 Y98.311 E.02895
G1 X101.829 Y106.133 E.28245
G1 X101.877 Y106.274 E.00538
G1 X101.986 Y106.35 E.00477
G1 X102.452 Y106.505 E.01774
G1 X102.172 Y107.159 E.02568
G1 X101.895 Y108.087 E.03497
G1 X101.727 Y109.04 E.03497
G1 X101.672 Y110.007 E.03497
G1 X101.729 Y110.974 E.03497
G1 X101.892 Y111.902 E.03401
G1 X102.168 Y112.83 E.03497
G1 X102.452 Y113.495 E.02611
G1 X101.986 Y113.65 E.01775
G1 X101.867 Y113.74 E.00538
G1 X101.829 Y113.867 E.00477
G1 X101.829 Y121.65 E.28103
G1 X101.324 Y120.584 F18000
G1 F3000
G1 X101.214 Y120.616 E.00413
G1 X101.147 Y120.585 E.00267
G1 X100.795 Y120.29 E.01657
G1 X100.276 Y119.802 E.02572
G1 X99.662 Y119.152 E.03228
G1 X99.204 Y118.607 E.02571
G1 X98.67 Y117.89 E.03228
G1 X98.282 Y117.302 E.02543
G1 X97.83 Y116.521 E.03257
G1 X97.51 Y115.885 E.02572
G1 X97.156 Y115.064 E.03228
G1 X96.914 Y114.403 E.02543
G1 X96.654 Y113.539 E.03257
G1 X96.491 Y112.854 E.02543
G1 X96.334 Y111.966 E.03257
G1 X96.251 Y111.266 E.02543
G1 X96.198 Y110.366 E.03257
G1 X96.197 Y109.662 E.02543
G1 X96.249 Y108.761 E.03257
G1 X96.33 Y108.062 E.02543
G1 X96.486 Y107.173 E.03257
G1 X96.647 Y106.488 E.02543
G1 X96.905 Y105.623 E.03257
G1 X97.145 Y104.961 E.02543
G1 X97.502 Y104.133 E.03257
G1 X97.817 Y103.503 E.02543
G1 X98.267 Y102.721 E.03257
G1 X98.654 Y102.133 E.02543
G1 X99.192 Y101.409 E.03257
G1 X99.644 Y100.869 E.02543
G1 X100.268 Y100.206 E.03286
G1 X100.774 Y99.728 E.02514
G1 X101.146 Y99.415 E.01757
G1 X101.257 Y99.385 E.00413
G1 X101.352 Y99.448 E.00413
G1 X101.372 Y99.52 E.00268
G1 X101.372 Y106.122 E.23838
G1 X101.441 Y106.41 E.0107
G1 X101.544 Y106.584 E.00729
G1 X101.743 Y106.736 E.00904
G1 X101.791 Y106.885 E.00567
G1 X101.459 Y107.949 E.04024
G1 X101.279 Y108.954 E.03686
G1 X101.216 Y109.974 E.03688
G1 X101.272 Y110.993 E.03688
G1 X101.456 Y112.039 E.03834
G1 X101.728 Y112.954 E.03445
G1 X101.789 Y113.107 E.00594
G1 X101.783 Y113.221 E.00413
G1 X101.599 Y113.37 E.00855
G1 X101.468 Y113.522 E.00723
G1 X101.394 Y113.728 E.00793
G1 X101.372 Y113.877 E.00541
G1 X101.372 Y120.48 E.23843
G1 X101.341 Y120.548 E.00269
G1 X100.867 Y119.562 F18000
G1 F3000
G1 X100.757 Y119.593 E.00413
G1 X100.679 Y119.553 E.00319
G1 X100.001 Y118.845 E.03538
G1 X99.56 Y118.32 E.02475
G1 X99.042 Y117.624 E.03132
G1 X98.669 Y117.058 E.02447
G1 X98.231 Y116.3 E.0316
G1 X97.923 Y115.688 E.02475
G1 X97.582 Y114.899 E.03104
G1 X97.347 Y114.255 E.02476
G1 X97.097 Y113.424 E.03132
G1 X96.938 Y112.757 E.02476
G1 X96.787 Y111.903 E.03132
G1 X96.707 Y111.23 E.02447
G1 X96.655 Y110.356 E.03161
G1 X96.654 Y109.679 E.02447
G1 X96.704 Y108.805 E.03161
G1 X96.782 Y108.131 E.02447
G1 X96.934 Y107.261 E.0319
G1 X97.09 Y106.602 E.02447
G1 X97.341 Y105.763 E.03161
G1 X97.572 Y105.126 E.02447
G1 X97.915 Y104.329 E.03132
G1 X98.222 Y103.716 E.02476
G1 X98.659 Y102.958 E.03161
G1 X99.031 Y102.391 E.02447
G1 X99.548 Y101.695 E.03132
G1 X99.989 Y101.169 E.02479
G1 X100.678 Y100.447 E.03602
G1 X100.785 Y100.405 E.00413
G1 X100.886 Y100.458 E.00413
G1 X100.915 Y100.542 E.0032
G1 X100.915 Y106.108 E.20097
G1 X100.995 Y106.509 E.01475
G1 X101.054 Y106.653 E.00562
G1 X101.145 Y106.806 E.00644
G1 X101.235 Y106.908 E.0049
G1 X101.264 Y107.039 E.00486
G1 X101.008 Y107.877 E.03163
G1 X100.83 Y108.866 E.03629
G1 X100.76 Y109.938 E.03879
G1 X100.824 Y111.081 E.04131
G1 X101.005 Y112.111 E.03778
G1 X101.256 Y112.972 E.03239
G1 X101.228 Y113.1 E.00474
G1 X101.131 Y113.213 E.00539
G1 X101.035 Y113.377 E.00684
G1 X100.94 Y113.671 E.01117
G1 X100.915 Y113.885 E.00777
G1 X100.915 Y119.458 E.20122
G1 X100.884 Y119.525 E.00269
G1 X100.41 Y118.405 F18000
G1 F3000
G1 X100.3 Y118.437 E.00413
G1 X100.215 Y118.389 E.0035
G1 X99.916 Y118.033 E.0168
G1 X99.419 Y117.365 E.03008
G1 X99.056 Y116.814 E.0238
G1 X98.635 Y116.087 E.03035
G1 X98.339 Y115.498 E.02379
G1 X98.008 Y114.733 E.03008
G1 X97.782 Y114.114 E.0238
G1 X97.538 Y113.301 E.03065
G1 X97.385 Y112.66 E.02379
G1 X97.24 Y111.84 E.03008
G1 X97.163 Y111.186 E.02379
G1 X97.113 Y110.346 E.03036
G1 X97.111 Y109.695 E.02351
G1 X97.16 Y108.848 E.03065
G1 X97.234 Y108.201 E.0235
G1 X97.382 Y107.357 E.03093
G1 X97.533 Y106.716 E.02379
G1 X97.774 Y105.91 E.03036
G1 X97.999 Y105.291 E.0238
G1 X98.328 Y104.526 E.03007
G1 X98.623 Y103.937 E.02379
G1 X99.046 Y103.201 E.03065
G1 X99.404 Y102.657 E.02351
G1 X99.905 Y101.982 E.03036
G1 X100.215 Y101.611 E.01747
G1 X100.319 Y101.561 E.00413
G1 X100.423 Y101.608 E.00413
G1 X100.458 Y101.699 E.0035
G1 X100.458 Y106.095 E.15874
G1 X100.575 Y106.688 E.02183
G1 X100.748 Y107.034 E.01396
G1 X100.757 Y107.135 E.00365
G1 X100.556 Y107.804 E.02521
G1 X100.381 Y108.778 E.03573
G1 X100.305 Y109.9 E.04063
G1 X100.375 Y111.168 E.04582
G1 X100.553 Y112.183 E.03722
G1 X100.751 Y112.873 E.02593
G1 X100.741 Y112.975 E.0037
G1 X100.596 Y113.248 E.01116
G1 X100.509 Y113.52 E.0103
G1 X100.458 Y113.894 E.01364
G1 X100.458 Y118.301 E.15912
G1 X100.427 Y118.369 E.00269
G1 X99.953 Y117.064 F18000
G1 F3000
G1 X99.843 Y117.095 E.00413
G1 X99.749 Y117.035 E.00403
G1 X99.447 Y116.577 E.0198
G1 X99.036 Y115.866 E.02968
G1 X98.752 Y115.301 E.02283
G1 X98.435 Y114.568 E.02884
G1 X98.215 Y113.966 E.02312
G1 X97.978 Y113.179 E.02968
G1 X97.832 Y112.564 E.02283
G1 X97.693 Y111.777 E.02884
G1 X97.618 Y111.141 E.02312
G1 X97.57 Y110.336 E.02911
G1 X97.569 Y109.712 E.02255
G1 X97.615 Y108.891 E.02969
G1 X97.687 Y108.263 E.02283
G1 X97.831 Y107.445 E.02996
G1 X97.976 Y106.83 E.02283
G1 X98.209 Y106.05 E.0294
G1 X98.425 Y105.456 E.02284
G1 X98.741 Y104.722 E.02883
G1 X99.028 Y104.15 E.02312
G1 X99.434 Y103.444 E.02939
G1 X99.749 Y102.964 E.02073
G1 X99.846 Y102.903 E.00413
G1 X99.955 Y102.937 E.00413
G1 X100.001 Y103.039 E.00404
G1 X100.001 Y106.083 E.10989
G1 X100.125 Y106.764 E.02501
G1 X100.262 Y107.083 E.01255
G1 X100.267 Y107.176 E.00335
G1 X100.105 Y107.73 E.02085
G1 X99.933 Y108.69 E.0352
G1 X99.849 Y109.861 E.0424
G1 X99.926 Y111.255 E.05039
G1 X100.102 Y112.255 E.03668
G1 X100.261 Y112.823 E.02129
G1 X100.253 Y112.919 E.00349
G1 X100.158 Y113.117 E.00792
G1 X100.077 Y113.369 E.00955
G1 X100.001 Y113.904 E.01951
G1 X100.001 Y116.96 E.11034
G1 X99.97 Y117.027 E.00269
G1 X99.495 Y115.384 F18000
G1 F3000
G1 X99.385 Y115.415 E.00413
G1 X99.281 Y115.336 E.00472
G1 X98.862 Y114.404 E.03692
G1 X98.648 Y113.818 E.02252
G1 X98.419 Y113.056 E.02871
G1 X98.28 Y112.467 E.02187
G1 X98.146 Y111.714 E.0276
G1 X98.074 Y111.105 E.02216
G1 X98.027 Y110.326 E.02816
G1 X98.026 Y109.728 E.02159
G1 X98.07 Y108.934 E.02873
G1 X98.139 Y108.332 E.02186
G1 X98.278 Y107.542 E.02899
G1 X98.419 Y106.945 E.02215
G1 X98.642 Y106.198 E.02815
G1 X98.849 Y105.628 E.02188
G1 X99.281 Y104.664 E.03813
G1 X99.367 Y104.589 E.00413
G1 X99.481 Y104.605 E.00413
G1 X99.543 Y104.72 E.00474
G1 X99.543 Y106.071 E.04877
G1 X99.673 Y106.835 E.02797
G1 X99.779 Y107.119 E.01094
G1 X99.783 Y107.204 E.00309
G1 X99.654 Y107.656 E.01697
G1 X99.484 Y108.602 E.0347
G1 X99.394 Y109.82 E.0441
G1 X99.477 Y111.342 E.05502
G1 X99.651 Y112.328 E.03615
G1 X99.775 Y112.782 E.01699
G1 X99.773 Y112.861 E.00286
G1 X99.623 Y113.316 E.0173
G1 X99.549 Y113.83 E.01874
G1 X99.543 Y115.281 E.05239
G1 X99.512 Y115.348 E.00269
G1 E-.56 F1800
;WIPE_START
G1 F3000
G1 X99.385 Y115.415 E-.03449
G1 X99.281 Y115.336 E-.03137
G1 X98.984 Y114.675 E-.17414
;WIPE_END
G1 X99.113 Y113.252 Z.4 F18000
G1 Z.2
G1 E.8 F1800
G1 F3000
G1 X98.998 Y113.248 E.00413
G1 X98.927 Y113.159 E.0041
G1 X98.727 Y112.37 E.0294
G1 X98.599 Y111.651 E.02637
G1 X98.53 Y111.068 E.02121
G1 X98.484 Y110.316 E.02721
G1 X98.483 Y109.745 E.02063
G1 X98.526 Y108.977 E.02776
G1 X98.591 Y108.402 E.02089
G1 X98.727 Y107.627 E.0284
G1 X98.938 Y106.804 E.03068
G1 X99.01 Y106.715 E.00413
G1 X99.125 Y106.712 E.00413
G1 X99.206 Y106.815 E.00475
G1 X99.3 Y107.143 E.01232
G1 X99.302 Y107.222 E.00287
G1 X99.203 Y107.582 E.01345
G1 X99.036 Y108.514 E.03421
G1 X98.938 Y109.854 E.04849
G1 X99.029 Y111.429 E.05696
G1 X99.199 Y112.401 E.03565
G1 X99.298 Y112.771 E.01381
G1 X99.296 Y112.849 E.00283
G1 X99.191 Y113.168 E.01215
G1 X99.14 Y113.223 E.00269
G1 E-.56 F1800
;WIPE_START
G1 F3000
G1 X98.998 Y113.248 E-.03449
G1 X98.927 Y113.159 E-.02722
G1 X98.744 Y112.44 E-.17828
;WIPE_END
G1 X102.554 Y112.653 Z.4 F18000
G1 X117.548 Y113.495 Z.4
G1 Z.2
G1 E.8 F1800
G1 F3000
G1 X117.832 Y112.83 E.02611
G1 X118.108 Y111.902 E.03497
G1 X118.274 Y110.948 E.03497
G1 X118.328 Y109.981 E.03497
G1 X118.269 Y109.014 E.03497
G1 X118.105 Y108.087 E.03401
G1 X117.828 Y107.159 E.03497
G1 X117.548 Y106.505 E.02568
G1 X118.014 Y106.35 E.01774
